svg/Tango/devices/drive-removable-media.svg

<?xml version="1.0" encoding="UTF-8" standalone="no"?>
<!-- Created with Inkscape (http://www.inkscape.org/) -->
<svg
   xmlns:dc="http://purl.org/dc/elements/1.1/"
   xmlns:cc="http://creativecommons.org/ns#"
   xmlns:rdf="http://www.w3.org/1999/02/22-rdf-syntax-ns#"
   xmlns:svg="http://www.w3.org/2000/svg"
   xmlns="http://www.w3.org/2000/svg"
   xmlns:xlink="http://www.w3.org/1999/xlink"
   xmlns:sodipodi="http://sodipodi.sourceforge.net/DTD/sodipodi-0.dtd"
   xmlns:inkscape="http://www.inkscape.org/namespaces/inkscape"
   sodipodi:docname="drive-removable-media.svg"
   sodipodi:docbase="/home/jimmac/src/cvs/tango-icon-theme/scalable/devices"
   inkscape:version="0.46"
   sodipodi:version="0.32"
   id="svg2913"
   height="48px"
   width="48px"
   inkscape:output_extension="org.inkscape.output.svg.inkscape">
  <defs
     id="defs3">
    <inkscape:perspective
       sodipodi:type="inkscape:persp3d"
       inkscape:vp_x="0 : 24 : 1"
       inkscape:vp_y="0 : 1000 : 0"
       inkscape:vp_z="48 : 24 : 1"
       inkscape:persp3d-origin="24 : 16 : 1"
       id="perspective61" />
    <radialGradient
       inkscape:collect="always"
       xlink:href="#linearGradient5060"
       id="radialGradient6719"
       gradientUnits="userSpaceOnUse"
       gradientTransform="matrix(-2.774389,0,0,1.969706,112.7623,-872.8854)"
       cx="605.71429"
       cy="486.64789"
       fx="605.71429"
       fy="486.64789"
       r="117.14286" />
    <linearGradient
       inkscape:collect="always"
       id="linearGradient5060">
      <stop
         style="stop-color:black;stop-opacity:1;"
         offset="0"
         id="stop5062" />
      <stop
         style="stop-color:black;stop-opacity:0;"
         offset="1"
         id="stop5064" />
    </linearGradient>
    <radialGradient
       inkscape:collect="always"
       xlink:href="#linearGradient5060"
       id="radialGradient6717"
       gradientUnits="userSpaceOnUse"
       gradientTransform="matrix(2.774389,0,0,1.969706,-1891.633,-872.8854)"
       cx="605.71429"
       cy="486.64789"
       fx="605.71429"
       fy="486.64789"
       r="117.14286" />
    <linearGradient
       id="linearGradient5048">
      <stop
         style="stop-color:black;stop-opacity:0;"
         offset="0"
         id="stop5050" />
      <stop
         id="stop5056"
         offset="0.5"
         style="stop-color:black;stop-opacity:1;" />
      <stop
         style="stop-color:black;stop-opacity:0;"
         offset="1"
         id="stop5052" />
    </linearGradient>
    <linearGradient
       inkscape:collect="always"
       xlink:href="#linearGradient5048"
       id="linearGradient6715"
       gradientUnits="userSpaceOnUse"
       gradientTransform="matrix(2.774389,0,0,1.969706,-1892.179,-872.8854)"
       x1="302.85715"
       y1="366.64789"
       x2="302.85715"
       y2="609.50507" />
    <linearGradient
       id="linearGradient5699">
      <stop
         id="stop5701"
         offset="0"
         style="stop-color:#7a7a7a;stop-opacity:1;" />
      <stop
         id="stop5703"
         offset="1"
         style="stop-color:#a5a5a5;stop-opacity:1;" />
    </linearGradient>
    <linearGradient
       id="linearGradient2681">
      <stop
         style="stop-color:#000000;stop-opacity:0.47524753;"
         offset="0.0000000"
         id="stop2683" />
      <stop
         style="stop-color:#000000;stop-opacity:0;"
         offset="1"
         id="stop2685" />
    </linearGradient>
    <linearGradient
       id="linearGradient2673">
      <stop
         style="stop-color:#ffffff;stop-opacity:1;"
         offset="0"
         id="stop2675" />
      <stop
         style="stop-color:#6f6f6f;stop-opacity:1.0000000;"
         offset="1.0000000"
         id="stop2677" />
    </linearGradient>
    <linearGradient
       id="linearGradient4264"
       inkscape:collect="always">
      <stop
         id="stop4266"
         offset="0"
         style="stop-color:#000000;stop-opacity:1;" />
      <stop
         id="stop4268"
         offset="1"
         style="stop-color:#000000;stop-opacity:0;" />
    </linearGradient>
    <linearGradient
       id="linearGradient4254"
       inkscape:collect="always">
      <stop
         id="stop4256"
         offset="0"
         style="stop-color:#ffffff;stop-opacity:1;" />
      <stop
         id="stop4258"
         offset="1"
         style="stop-color:#ffffff;stop-opacity:0;" />
    </linearGradient>
    <linearGradient
       id="linearGradient4244">
      <stop
         id="stop4246"
         offset="0.0000000"
         style="stop-color:#e4e4e4;stop-opacity:1.0000000;" />
      <stop
         id="stop4248"
         offset="1.0000000"
         style="stop-color:#d3d3d3;stop-opacity:1.0000000;" />
    </linearGradient>
    <linearGradient
       id="linearGradient4228">
      <stop
         id="stop4230"
         offset="0.0000000"
         style="stop-color:#bbbbbb;stop-opacity:1.0000000;" />
      <stop
         id="stop4232"
         offset="1.0000000"
         style="stop-color:#9f9f9f;stop-opacity:1.0000000;" />
    </linearGradient>
    <linearGradient
       gradientUnits="userSpaceOnUse"
       y2="40.943935"
       x2="36.183067"
       y1="28.481176"
       x1="7.6046205"
       id="linearGradient4234"
       xlink:href="#linearGradient4228"
       inkscape:collect="always"
       gradientTransform="translate(0.000000,5.546300e-2)" />
    <radialGradient
       gradientUnits="userSpaceOnUse"
       gradientTransform="matrix(1.286242,0.781698,-0.710782,1.169552,-2.354348,-4.821398)"
       r="20.935817"
       fy="2.9585190"
       fx="15.571491"
       cy="2.9585190"
       cx="15.571491"
       id="radialGradient4250"
       xlink:href="#linearGradient4244"
       inkscape:collect="always" />
    <linearGradient
       gradientUnits="userSpaceOnUse"
       y2="47.620636"
       x2="44.096100"
       y1="4.4331360"
       x1="12.378357"
       id="linearGradient4260"
       xlink:href="#linearGradient4254"
       inkscape:collect="always"
       gradientTransform="translate(0.000000,5.546300e-2)" />
    <radialGradient
       gradientUnits="userSpaceOnUse"
       gradientTransform="matrix(1.000000,0.000000,0.000000,0.651032,-6.731815e-16,9.455693)"
       r="23.555494"
       fy="27.096155"
       fx="23.201941"
       cy="27.096155"
       cx="23.201941"
       id="radialGradient4270"
       xlink:href="#linearGradient4264"
       inkscape:collect="always" />
    <radialGradient
       inkscape:collect="always"
       xlink:href="#linearGradient2673"
       id="radialGradient2679"
       cx="40.796875"
       cy="33.734375"
       fx="40.796875"
       fy="33.734375"
       r="0.98437500"
       gradientUnits="userSpaceOnUse"
       gradientTransform="matrix(1.253968,-7.218212e-15,7.218212e-15,1.253968,-10.36111,-8.567460)" />
    <linearGradient
       inkscape:collect="always"
       xlink:href="#linearGradient2681"
       id="linearGradient2687"
       x1="25.785229"
       y1="32.363384"
       x2="25.785229"
       y2="35.670216"
       gradientUnits="userSpaceOnUse" />
    <linearGradient
       inkscape:collect="always"
       xlink:href="#linearGradient2681"
       id="linearGradient2689"
       gradientUnits="userSpaceOnUse"
       x1="25.785229"
       y1="32.363384"
       x2="25.785229"
       y2="35.670216" />
    <linearGradient
       gradientUnits="userSpaceOnUse"
       y2="10.596288"
       x2="16.127340"
       y1="22.705490"
       x1="34.420757"
       id="linearGradient5705"
       xlink:href="#linearGradient5699"
       inkscape:collect="always" />
  </defs>
  <sodipodi:namedview
     fill="#f57900"
     inkscape:showpageshadow="false"
     inkscape:window-y="160"
     inkscape:window-x="275"
     inkscape:window-height="688"
     inkscape:window-width="872"
     inkscape:document-units="px"
     inkscape:grid-bbox="true"
     showgrid="false"
     inkscape:current-layer="layer2"
     inkscape:cy="10.253819"
     inkscape:cx="89.378036"
     inkscape:zoom="2.8284271"
     inkscape:pageshadow="2"
     inkscape:pageopacity="0.0"
     borderopacity="0.36078431"
     bordercolor="#666666"
     pagecolor="#ffffff"
     id="base" />
  <metadata
     id="metadata4">
    <rdf:RDF>
      <cc:Work
         rdf:about="">
        <dc:format>image/svg+xml</dc:format>
        <dc:type
           rdf:resource="http://purl.org/dc/dcmitype/StillImage" />
        <dc:title>Drive - Removable</dc:title>
        <dc:creator>
          <cc:Agent>
            <dc:title>Jakub Steiner</dc:title>
          </cc:Agent>
        </dc:creator>
        <dc:subject>
          <rdf:Bag>
            <rdf:li>media</rdf:li>
            <rdf:li>removable</rdf:li>
          </rdf:Bag>
        </dc:subject>
        <cc:license
           rdf:resource="http://creativecommons.org/licenses/publicdomain/" />
        <dc:identifier />
        <dc:source>http://jimmac.musichall.cz</dc:source>
      </cc:Work>
      <cc:License
         rdf:about="http://creativecommons.org/licenses/publicdomain/">
        <cc:permits
           rdf:resource="http://creativecommons.org/ns#Reproduction" />
        <cc:permits
           rdf:resource="http://creativecommons.org/ns#Distribution" />
        <cc:permits
           rdf:resource="http://creativecommons.org/ns#DerivativeWorks" />
      </cc:License>
    </rdf:RDF>
  </metadata>
  <g
     inkscape:label="pix"
     id="layer2"
     inkscape:groupmode="layer">
    <g
       transform="matrix(2.45274e-2,0,0,2.086758e-2,45.69054,36.1536)"
       id="g6707">
      <rect
         style="opacity:0.40206185;color:black;fill:url(#linearGradient6715);fill-opacity:1;fill-rule:nonzero;stroke:none;stroke-width:1;stroke-linecap:round;stroke-linejoin:miter;marker:none;marker-start:none;marker-mid:none;marker-end:none;stroke-miterlimit:4;stroke-dasharray:none;stroke-dashoffset:0;stroke-opacity:1;visibility:visible;display:inline;overflow:visible"
         id="rect6709"
         width="1339.6335"
         height="478.35718"
         x="-1559.2523"
         y="-150.69685" />
      <path
         style="opacity:0.40206185;color:black;fill:url(#radialGradient6717);fill-opacity:1;fill-rule:nonzero;stroke:none;stroke-width:1;stroke-linecap:round;stroke-linejoin:miter;marker:none;marker-start:none;marker-mid:none;marker-end:none;stroke-miterlimit:4;stroke-dasharray:none;stroke-dashoffset:0;stroke-opacity:1;visibility:visible;display:inline;overflow:visible"
         d="M -219.61876,-150.68038 C -219.61876,-150.68038 -219.61876,327.65041 -219.61876,327.65041 C -76.744594,328.55086 125.78146,220.48075 125.78138,88.454235 C 125.78138,-43.572302 -33.655436,-150.68036 -219.61876,-150.68038 z "
         id="path6711"
         sodipodi:nodetypes="cccc" />
      <path
         sodipodi:nodetypes="cccc"
         id="path6713"
         d="M -1559.2523,-150.68038 C -1559.2523,-150.68038 -1559.2523,327.65041 -1559.2523,327.65041 C -1702.1265,328.55086 -1904.6525,220.48075 -1904.6525,88.454235 C -1904.6525,-43.572302 -1745.2157,-150.68036 -1559.2523,-150.68038 z "
         style="opacity:0.40206185;color:black;fill:url(#radialGradient6719);fill-opacity:1;fill-rule:nonzero;stroke:none;stroke-width:1;stroke-linecap:round;stroke-linejoin:miter;marker:none;marker-start:none;marker-mid:none;marker-end:none;stroke-miterlimit:4;stroke-dasharray:none;stroke-dashoffset:0;stroke-opacity:1;visibility:visible;display:inline;overflow:visible" />
    </g>
    <path
       sodipodi:nodetypes="cccsccccccccc"
       id="path4196"
       d="M 11.285690,8.0180850 C 10.660690,8.0180850 10.254441,8.3082650 10.004442,8.8618380 C 10.004441,8.8618380 3.5356915,25.965402 3.5356915,25.965402 C 3.5356915,25.965402 3.2856915,26.636961 3.2856915,27.746652 C 3.2856915,27.746652 3.2856915,37.396620 3.2856915,37.396620 C 3.2856915,38.479233 3.9434770,39.021622 4.9419415,39.021620 L 43.504440,39.021620 C 44.489293,39.021620 45.098190,38.303440 45.098190,37.177870 L 45.098190,27.527902 C 45.098190,27.527902 45.204153,26.757479 45.004440,26.215402 L 38.285690,9.0180890 C 38.101165,8.5061820 37.648785,8.0299910 37.160690,8.0180850 L 11.285690,8.0180850 z "
       style="fill:none;fill-opacity:1.0000000;fill-rule:evenodd;stroke:#535353;stroke-width:2.0000000;stroke-linecap:round;stroke-linejoin:round;stroke-miterlimit:4.0000000;stroke-dasharray:none;stroke-opacity:1.0000000" />
    <path
       sodipodi:nodetypes="ccccccccc"
       id="path4170"
       d="M 3.2735915,27.052276 L 4.0381936,26.360061 L 41.647883,26.422561 L 45.110290,26.739859 L 45.110290,37.178391 C 45.110290,38.303960 44.503272,39.021722 43.518419,39.021722 L 4.9354314,39.021722 C 3.9369667,39.021722 3.2735915,38.479671 3.2735915,37.397058 L 3.2735915,27.052276 z "
       style="fill:url(#linearGradient4234);fill-opacity:1.0000000;fill-rule:evenodd;stroke:none;stroke-width:1.0204430px;stroke-linecap:butt;stroke-linejoin:miter;stroke-opacity:1.0000000" />
    <path
       sodipodi:nodetypes="csccccccs"
       id="path3093"
       d="M 3.5490842,25.969868 C 2.8347985,27.434154 3.5484686,28.362725 4.5847985,28.362725 C 4.5847985,28.362725 43.584797,28.362725 43.584797,28.362725 C 44.703844,28.338915 45.430035,27.350820 45.013368,26.219867 L 38.299082,9.0091620 C 38.114558,8.4972550 37.644320,8.0210630 37.156225,8.0091580 L 11.299083,8.0091580 C 10.674083,8.0091580 10.263369,8.3127310 10.013370,8.8663040 C 10.013370,8.8663040 3.5490842,25.969868 3.5490842,25.969868 z "
       style="fill:url(#radialGradient4250);fill-opacity:1.0000000;fill-rule:evenodd;stroke:none;stroke-width:1.0000000px;stroke-linecap:butt;stroke-linejoin:miter;stroke-opacity:1.0000000" />
    <path
       sodipodi:nodetypes="ccccccc"
       id="path4201"
       d="M 43.562434,27.674347 C 43.562434,27.674347 5.4437179,27.674346 5.4437180,27.674347 C 4.1544861,27.674347 3.5317878,27.437788 3.3154731,26.894679 C 3.4072345,27.839011 4.1854847,28.455597 5.4437180,28.455597 C 5.4437179,28.455596 43.562434,28.455597 43.562434,28.455597 C 44.638441,28.422526 45.301832,27.596846 45.047181,26.300495 C 44.913133,27.142077 44.470547,27.646437 43.562434,27.674347 z "
       style="opacity:1.0000000;fill:#ffffff;fill-opacity:1.0000000;fill-rule:evenodd;stroke:none;stroke-width:1.0000000px;stroke-linecap:butt;stroke-linejoin:miter;stroke-opacity:1.0000000" />
    <path
       sodipodi:nodetypes="ccccccccc"
       id="path5637"
       d="M 38.344670,9.2120874 C 38.344670,9.2120874 44.500000,24.750000 44.500000,24.750000 C 43.881282,24.352252 43.618718,24.036612 43.000000,24.125000 L 5.2500000,24.125000 C 4.5428932,24.125000 3.8383883,24.875000 3.8383883,24.875000 L 10.125000,8.8750000 C 10.258882,8.3753463 10.748699,8.0732233 11.411612,8.0732233 L 36.830806,7.9848350 C 38.156631,8.1616117 38.123699,8.5933690 38.344670,9.2120874 z "
       style="opacity:1;color:#000000;fill:url(#linearGradient5705);fill-opacity:1.0;fill-rule:nonzero;stroke:none;stroke-width:1.0000000;stroke-linecap:butt;stroke-linejoin:miter;marker:none;marker-start:none;marker-mid:none;marker-end:none;stroke-miterlimit:4.0000000;stroke-dasharray:none;stroke-dashoffset:0.0000000;stroke-opacity:1.0000000;visibility:visible;display:inline;overflow:visible" />
    <path
       style="stroke-opacity:1.0000000;stroke-linejoin:miter;stroke-linecap:butt;stroke-width:1.0000000px;stroke:none;fill-rule:evenodd;fill-opacity:1;fill:#686868"
       d="M 44.707773,25.362009 C 44.373548,25.128501 44.072800,25.167489 43.518240,25.139579 C 43.518240,25.139579 4.7366112,24.874414 4.7366112,24.874414 C 4.1620870,24.918608 3.4957121,25.684093 3.4957121,25.684093 C 3.4957121,25.684093 4.0667741,24.284062 4.0667741,24.284062 C 4.0667741,24.284062 4.4064556,23.120892 5.6646889,23.120892 C 5.6646888,23.120893 42.855327,23.120892 42.855327,23.120892 C 43.577781,23.153963 44.022560,23.550547 44.207491,24.016460 L 44.707773,25.362009 z "
       id="path5697"
       sodipodi:nodetypes="cccsccccc" />
    <path
       style="fill:none;fill-opacity:1.0000000;fill-rule:evenodd;stroke:url(#linearGradient4260);stroke-width:1.0000002;stroke-linecap:round;stroke-linejoin:round;stroke-miterlimit:4.0000000;stroke-dasharray:none;stroke-opacity:1.0000000"
       d="M 11.642515,8.4711800 C 11.040823,8.4711800 10.649724,8.7505390 10.409049,9.2834670 C 10.409048,9.2834670 3.9940341,25.874196 3.9940341,25.874196 C 3.9940341,25.874196 3.7533573,26.520711 3.7533573,27.589019 C 3.7533573,27.589019 3.7533573,36.879115 3.7533573,36.879115 C 3.7533573,38.233855 4.1974134,38.506014 5.3478414,38.506014 L 43.034746,38.506014 C 44.357872,38.506014 44.569062,38.189617 44.569062,36.668522 L 44.569062,27.378426 C 44.569062,27.378426 44.671072,26.636735 44.478807,26.114873 L 37.885616,9.3088910 C 37.707973,8.8160750 37.334964,8.4826410 36.865071,8.4711800 L 11.642515,8.4711800 z "
       id="path4252"
       sodipodi:nodetypes="cccsccccccccc" />
    <g
       id="g2142"
       transform="matrix(0.828197,0.000000,0.000000,0.610240,4.176000,11.16143)"
       style="fill:url(#linearGradient2687);fill-opacity:1.0000000">
      <rect
         y="32.363384"
         x="5.3414402"
         height="3.8650389"
         width="37.930714"
         id="rect2151"
         style="opacity:1.0000000;color:#000000;fill:url(#linearGradient2689);fill-opacity:1.0000000;fill-rule:evenodd;stroke:none;stroke-width:1.0000000;stroke-linecap:square;stroke-linejoin:round;marker:none;marker-start:none;marker-mid:none;marker-end:none;stroke-miterlimit:4.0000000;stroke-dasharray:none;stroke-dashoffset:0.0000000;stroke-opacity:0.42372879;visibility:visible;display:inline;overflow:visible" />
    </g>
    <path
       style="opacity:0.71428573;fill:#ffffff;fill-opacity:1.0000000;fill-rule:evenodd;stroke:none;stroke-width:1.0000000px;stroke-linecap:butt;stroke-linejoin:miter;stroke-opacity:1.0000000"
       d="M 8.6250000,33.250000 C 8.6250000,33.250000 9.0696486,34.066942 9.8651437,34.022748 C 9.8651437,34.022748 40.715385,34.000000 40.715385,34.000000 C 40.671191,31.569320 40.027885,30.881430 40.027885,30.881430 L 40.062500,33.312500 L 8.6250000,33.250000 z "
       id="path1899"
       sodipodi:nodetypes="cccccc" />
    <path
       sodipodi:type="arc"
       style="opacity:1.0000000;color:#000000;fill:url(#radialGradient2679);fill-opacity:1.0000000;fill-rule:evenodd;stroke:none;stroke-width:1.0204430px;stroke-linecap:butt;stroke-linejoin:miter;marker:none;marker-start:none;marker-mid:none;marker-end:none;stroke-miterlimit:4.0000000;stroke-dasharray:none;stroke-dashoffset:0.0000000;stroke-opacity:1.0000000;visibility:visible;display:inline;overflow:visible;font-family:Bitstream Vera Sans"
       id="path2671"
       sodipodi:cx="41.015625"
       sodipodi:cy="33.984375"
       sodipodi:rx="0.98437500"
       sodipodi:ry="0.98437500"
       d="M 42.000000 33.984375 A 0.98437500 0.98437500 0 1 1  40.031250,33.984375 A 0.98437500 0.98437500 0 1 1  42.000000 33.984375 z"
       transform="matrix(1.380952,0.000000,0.000000,1.380952,-15.62500,-10.94643)" />
  </g>
</svg>

<svg xmlns="http://www.w3.org/2000/svg" xmlns:xlink="http://www.w3.org/1999/xlink" viewBox="0 0 48 48"><defs><linearGradient gradientUnits="userSpaceOnUse" y2="40.999" x2="36.18" y1="28.537" x1="7.605" id="4"><stop stop-color="#bbb"/><stop offset="1" stop-color="#9f9f9f"/></linearGradient><linearGradient gradientUnits="userSpaceOnUse" y2="47.676" x2="44.1" y1="4.489" x1="12.378" id="6"><stop stop-color="#fff"/><stop offset="1" stop-color="#fff" stop-opacity="0"/></linearGradient><linearGradient id="3" gradientUnits="userSpaceOnUse" gradientTransform="matrix(2.77439 0 0 1.96971-1892.18-872.89)" y1="366.65" x2="0" y2="609.51"><stop stop-opacity="0"/><stop offset=".5"/><stop offset="1" stop-opacity="0"/></linearGradient><linearGradient gradientUnits="userSpaceOnUse" y2="10.596" x2="16.13" y1="22.705" x1="34.421" id="9"><stop stop-color="#7a7a7a"/><stop offset="1" stop-color="#a5a5a5"/></linearGradient><linearGradient id="8" y1="32.363" x2="0" y2="35.67" gradientUnits="userSpaceOnUse"><stop stop-opacity=".475"/><stop offset="1" stop-opacity="0"/></linearGradient><linearGradient id="1"><stop/><stop offset="1" stop-opacity="0"/></linearGradient><radialGradient id="7" cx="40.797" cy="33.734" r="1.234" gradientUnits="userSpaceOnUse"><stop stop-color="#fff"/><stop offset="1" stop-color="#6f6f6f"/></radialGradient><radialGradient gradientUnits="userSpaceOnUse" gradientTransform="matrix(1.28624.7817-.71078 1.16955-2.354-4.821)" r="20.936" cy="2.959" cx="15.571" id="5"><stop stop-color="#e4e4e4"/><stop offset="1" stop-color="#d3d3d3"/></radialGradient><radialGradient xlink:href="#1" id="2" gradientUnits="userSpaceOnUse" gradientTransform="matrix(2.77439 0 0 1.96971-1891.63-872.89)" cx="605.71" cy="486.65" r="117.14"/><radialGradient xlink:href="#1" id="0" gradientUnits="userSpaceOnUse" gradientTransform="matrix(-2.77439 0 0 1.96971 112.76-872.89)" cx="605.71" cy="486.65" r="117.14"/></defs><g transform="matrix(.02453 0 0 .02087 45.691 36.15)" color="#000"><path opacity=".402" fill="url(#3)" d="m-1559.25-150.7h1339.63v478.36h-1339.63z"/><path d="m-219.62-150.68c0 0 0 478.33 0 478.33 142.87.9 345.4-107.17 345.4-239.2 0-132.03-159.44-239.13-345.4-239.13" opacity=".402" fill="url(#2)"/><path d="m-1559.25-150.68c0 0 0 478.33 0 478.33-142.87.9-345.4-107.17-345.4-239.2 0-132.03 159.44-239.13 345.4-239.13" opacity=".402" fill="url(#0)"/></g><g fill-rule="evenodd"><path d="m11.286 8.02c-.625 0-1.031.29-1.281.844 0 0-6.469 17.1-6.469 17.1 0 0-.25.672-.25 1.781 0 0 0 9.65 0 9.65 0 1.083.658 1.625 1.656 1.625h38.562c.985 0 1.594-.718 1.594-1.844v-9.65c0 0 .106-.77-.094-1.313l-6.719-17.197c-.185-.512-.637-.988-1.125-1h-25.875z" fill="none" stroke="#535353" stroke-linejoin="round" stroke-linecap="round" stroke-width="2"/><path d="m3.274 27.05l.765-.692 37.61.063 3.462.317v10.439c0 1.126-.607 1.843-1.592 1.843h-38.583c-.998 0-1.662-.542-1.662-1.625v-10.345" fill="url(#4)"/><path d="m3.549 25.97c-.714 1.464-.0001 2.393 1.036 2.393 0 0 39 0 39 0 1.119-.024 1.845-1.012 1.429-2.143l-6.714-17.211c-.185-.512-.655-.988-1.143-1h-25.857c-.625 0-1.036.304-1.286.857 0 0-6.464 17.1-6.464 17.1" fill="url(#5)"/><path d="m43.562 27.674c0 0-38.12 0-38.12 0-1.289 0-1.912-.237-2.128-.78.092.944.87 1.561 2.128 1.561 0 0 38.12 0 38.12 0 1.076-.033 1.739-.859 1.485-2.155-.134.842-.577 1.346-1.485 1.374" fill="#fff"/></g><path d="m38.34 9.212c0 0 6.155 15.538 6.155 15.538-.619-.398-.881-.713-1.5-.625h-37.75c-.707 0-1.412.75-1.412.75l6.287-16c.134-.5.624-.802 1.287-.802l25.419-.088c1.326.177 1.293.609 1.514 1.227" color="#000" fill="url(#9)"/><g fill-rule="evenodd"><path d="m44.708 25.362c-.334-.234-.635-.195-1.19-.222 0 0-38.782-.265-38.782-.265-.575.044-1.241.81-1.241.81 0 0 .571-1.4.571-1.4 0 0 .34-1.163 1.598-1.163 0 0 37.19 0 37.19 0 .722.033 1.167.43 1.352.896l.5 1.346" fill="#686868"/><path d="m11.643 8.471c-.602 0-.993.279-1.233.812 0 0-6.415 16.591-6.415 16.591 0 0-.241.647-.241 1.715 0 0 0 9.29 0 9.29 0 1.355.444 1.627 1.594 1.627h37.687c1.323 0 1.534-.316 1.534-1.837v-9.29c0 0 .102-.742-.09-1.264l-6.593-16.806c-.178-.493-.551-.826-1.021-.838h-25.22z" fill="none" stroke="url(#6)" stroke-linejoin="round" stroke-linecap="round"/></g><g fill="url(#8)"><path color="#000" fill-rule="evenodd" transform="matrix(.8282 0 0 .61024 4.176 11.161)" d="m5.341 32.363h37.931v3.865h-37.931z"/></g><g fill-rule="evenodd"><path d="m8.625 33.25c0 0 .445.817 1.24.773 0 0 30.85-.023 30.85-.023-.044-2.431-.688-3.119-.688-3.119l.035 2.431-31.438-.063" opacity=".714" fill="#fff"/><path d="M42 33.984375A.984375 .984375 0 1 1 40.03125 33.984375 .984375 .984375 0 1 1 42 33.984375" transform="matrix(1.38095 0 0 1.38095-15.625-10.946)" color="#000" fill="url(#7)"/></g></svg>
